;*******************************************************
;HyperCube CAM post processor for Fusion360: Version 1.0
;Compatible with Marlin 1.1.4+
;For use with custom NXT bots
;*******************************************************

M117 Starting...
M5      ;Pen Up
G21     ;Metric Values
G90     ;Absolute Positioning
G0 F3600
G28

M117 Trace8
G0 X17.399 Y129.283
G0 Z15
G0 Z5
G1 Z0 F1206
G1 X19.296 Y126.74 F3000
G1 X20.304 Y125.393
G1 X20.402 Y125.264
G1 X20.607 Y125
G1 X11.071 Y123.244
G1 X13.268 Y129.441
G1 X13.959 Y131.374
G1 X14.375 Y132.521
G1 X14.531 Y132.941
G1 X14.566 Y133.029
G1 X14.572 Y133.04
G1 X14.635 Y132.963
G1 X14.882 Y132.641
G1 X15.686 Y131.574
G1 X16.837 Y130.037
G1 X17.399 Y129.283
G1 Z5 F1206
G0 X20.607 Y125 F3600
G1 Z0 F1206
G1 X21.185 Y125.109 F3000
G1 X21.404 Y125.153
G1 X21.547 Y125.185
G1 X21.622 Y125.205
G1 X21.643 Y125.212
G1 X21.645 Y125.214
G1 X21.748 Y125.492
G1 X22.335 Y127.135
G1 X24.066 Y132.014
G1 X24.699 Y133.78
G1 X25.003 Y134.615
G1 X25.131 Y134.955
G1 X25.145 Y134.989
G1 X25.151 Y135
G1 X25.16 Y134.991
G1 X25.266 Y134.857
G1 X25.68 Y134.315
G1 X26.83 Y132.788
G1 X28.169 Y131
G1 X29.306 Y129.48
G1 X29.946 Y128.63
G1 X30.428 Y127.996
G1 X30.778 Y127.548
G1 X30.948 Y127.337
G1 X31.077 Y127.187
G1 X31.128 Y127.131
G1 X31.171 Y127.087
G1 X31.208 Y127.054
G1 X31.238 Y127.03
G1 X31.263 Y127.014
G1 X31.283 Y127.006
G1 X31.301 Y127.004
G1 X28.884 Y126.563
G1 X28.882 Y126.56
G1 X28.847 Y126.545
G1 X28.77 Y126.523
G1 X28.561 Y126.473
G1 X28.27 Y126.411
G1 X27.918 Y126.342
G1 X25.331 Y125.861
G1 X24.177 Y125.672
G1 X21.645 Y125.214
G1 Z5 F1206
G0 X31.301 Y127.004 F3600
G1 Z0 F1206
G1 X31.347 Y127.009 F3000
G1 X31.528 Y127.037
G1 X31.905 Y127.106
G1 X32.306 Y127.186
G1 X33.168 Y127.363
G1 X36.576 Y136.974
G1 X36.584 Y136.969
G1 X36.683 Y136.849
G1 X36.975 Y136.473
G1 X37.425 Y135.883
G1 X38.334 Y134.678
G1 X39.441 Y133.198
G1 X41.922 Y129.874
G1 X42.336 Y129.324
G1 X40.098 Y128.782
G1 X40.048 Y128.766
G1 X39.788 Y128.705
G1 X39.24 Y128.586
G1 X38.222 Y128.374
G1 X36.204 Y127.963
G1 X35.696 Y127.858
G1 X33.167 Y127.363
G1 X34.864 Y132.147
G1 Z5 F1206
G0 X42.336 Y129.324 F3600
G1 Z0 F1206
G1 X42.348 Y129.317 F3000
G1 X42.369 Y129.313
G1 X42.399 Y129.311
G1 X42.437
G1 X42.531 Y129.318
G1 X42.646 Y129.332
G1 X42.775 Y129.351
G1 X42.979 Y129.388
G1 X43.113 Y129.416
G1 X43.293 Y129.46
G1 X43.39 Y129.489
G1 X43.429 Y129.503
G1 X43.482 Y129.529
G1 X43.496 Y129.541
G1 X43.518 Y129.593
G1 X43.649 Y129.943
G1 X44.029 Y130.993
G1 X44.791 Y133.125
G1 X45.905 Y136.262
G1 X46.527 Y137.997
G1 X46.825 Y138.817
G1 X46.93 Y139.098
G1 X46.965 Y139.184
G1 X46.971 Y139.195
G1 X46.993 Y139.17
G1 X47.143 Y138.978
G1 X47.59 Y138.388
G1 X48.499 Y137.177
G1 X49.958 Y135.22
G1 X50.821 Y134.069
G1 X51.07 Y133.742
G1 X51.119 Y133.682
G1 X51.601 Y133.104
G1 X51.604 Y133.091
G1 X51.625 Y133.049
G1 X51.681 Y132.957
G1 X51.816 Y132.754
G1 X51.998 Y132.496
G1 X52.614 Y131.654
G1 X50.445 Y131.113
G1 X50.183 Y131.045
G1 X49.221 Y130.817
G1 X48.07 Y130.546
G1 X43.496 Y129.541
G1 Z5 F1206
G0 X51.119 Y133.682 F3600
G1 Z0 F1206
G1 X51.122 Y133.681 F3000
G1 X51.123 Y133.688
G1 X51.111 Y133.729
G1 X51.078 Y133.825
G1 X50.969 Y134.112
G1 X50.574 Y135.121
G1 X49.134 Y138.761
G1 X47.915 Y141.831
G1 X47.649 Y142.491
G1 X47.458 Y142.947
G1 X47.365 Y143.157
G1 X47.326 Y143.238
G1 X47.262 Y143.36
G1 X47.236 Y143.403
G1 X47.212 Y143.437
G1 X47.19 Y143.462
G1 X47.169 Y143.48
G1 X47.15 Y143.492
G1 X47.131 Y143.501
G1 X47.111 Y143.507
G1 X46.915 Y143.547
G1 X42.903 Y136.885
G1 X42.215 Y135.746
G1 X41.74 Y134.966
G1 X41.52 Y134.612
G1 X41.364 Y134.368
G1 X41.305 Y134.28
G1 X41.258 Y134.212
G1 X41.221 Y134.161
G1 X41.191 Y134.125
G1 X41.168 Y134.101
G1 X41.15 Y134.087
G1 X41.135 Y134.08
G1 X41.122 Y134.077
G1 X41.109
G1 X41.098 Y134.083
G1 X41.082 Y134.102
G1 X41.062 Y134.133
G1 X41.005 Y134.239
G1 X40.926 Y134.407
G1 X40.822 Y134.643
G1 X40.691 Y134.951
G1 X40.437 Y135.565
G1 X39.98 Y136.695
G1 X39.191 Y138.675
G1 X38.427 Y140.594
G1 X37.931 Y141.828
G1 X37.523 Y142.83
G1 X37.214 Y143.573
G1 X37.054 Y143.945
G1 X36.983 Y144.099
G1 X36.96 Y144.146
G1 X36.944 Y144.173
G1 X36.936 Y144.18
G1 X36.868 Y144.074
G1 X36.312 Y143.166
G1 X34.983 Y140.97
G1 X33.122 Y137.887
G1 X32.037 Y136.105
G1 X31.492 Y135.222
G1 X31.284 Y134.89
G1 X31.202 Y134.764
G1 X31.179 Y134.731
G1 X31.169 Y134.72
G1 X31.161 Y134.73
G1 X31.121 Y134.815
G1 X31.002 Y135.09
G1 X30.747 Y135.702
G1 X30.301 Y136.799
G1 X29.746 Y138.181
G1 X28.301 Y141.813
G1 X27.681 Y143.359
G1 X27.415 Y144.011
G1 X27.344 Y144.178
G1 X27.337 Y144.192
G1 X27.328 Y144.184
G1 X27.306 Y144.155
G1 X27.168 Y143.947
G1 X26.931 Y143.573
G1 X26.481 Y142.849
G1 X26.059 Y142.162
G1 X25.229 Y140.799
G1 X22.366 Y136.056
G1 X21.715 Y134.984
G1 X21.655 Y134.888
G1 X21.541 Y135.166
G1 X20.873 Y136.841
G1 X18.889 Y141.839
G1 X18.252 Y143.431
G1 X17.872 Y144.371
G1 X17.694 Y144.8
G1 X17.654 Y144.891
G1 X17.647 Y144.903
G1 X17.638 Y144.892
G1 X17.533 Y144.729
G1 X17.127 Y144.069
G1 X16.325 Y142.753
G1 X15.08 Y140.694
G1 X13.543 Y138.146
G1 X12.604 Y136.598
G1 X12.046 Y135.685
G1 X11.788 Y135.268
G1 X11.731 Y135.18
G1 X11.722 Y135.169
G1 X11.715 Y135.18
G1 X11.641 Y135.352
G1 X11.358 Y136.044
G1 X10.803 Y137.425
G1 X9.807 Y139.926
G1 X7.645 Y145.38
G1 X12.634 Y145.408
G1 X13.712 Y145.405
G1 X14.331 Y145.399
G1 X14.722 Y145.394
G1 X15.126 Y145.385
G1 X15.325 Y145.377
G1 X15.402 Y145.372
G1 X15.423 Y145.369
G1 X15.431 Y145.366
G1 X19.795 Y145.276
G1 X19.827 Y145.279
G1 X19.911 Y145.281
G1 X20.217 Y145.278
G1 X20.948 Y145.262
G1 X22.234 Y145.226
G1 X23.595 Y145.181
G1 X24.483 Y145.148
G1 X24.941 Y145.128
G1 X25.247 Y145.112
G1 X25.332 Y145.105
G1 X25.364 Y145.1
G1 X29.308 Y144.941
G1 X29.381 Y144.942
G1 X29.803 Y144.926
G1 X30.782 Y144.878
G1 X32.25 Y144.801
G1 X33.718 Y144.721
G1 X34.317 Y144.683
G1 X34.617 Y144.66
G1 X34.696 Y144.651
G1 X36.936 Y144.18
G1 X39.221 Y144.315
G1 X39.444 Y144.301
G1 X40.257 Y144.233
G1 X41.398 Y144.13
G1 X42.84 Y143.992
G1 X43.642 Y143.91
G1 X46.915 Y143.547
G1 Z5 F1206
G0 X55.053 Y138.868 F3600
G1 Z0 F1206
G1 X53.189 Y135.764 F3000
G1 X51.818 Y133.473
G1 X51.601 Y133.104
G1 X51.604 Y133.091
G1 X51.625 Y133.049
G1 X51.681 Y132.957
G1 X51.816 Y132.754
G1 X51.998 Y132.496
G1 X52.614 Y131.654
G1 X53.779 Y131.962
G1 X54.524 Y132.162
G1 X54.922 Y132.273
G1 X55.151 Y132.339
G1 X55.26 Y132.374
G1 X55.276 Y132.381
G1 X57.764 Y133.098
G1 X57.802 Y133.104
G1 X57.998 Y133.155
G1 X58.198 Y133.213
G1 X58.529 Y133.315
G1 X59.249 Y133.547
G1 X59.873 Y133.752
G1 X60.561 Y133.983
G1 X60.924 Y134.111
G1 X61.011 Y134.145
G1 X61.026 Y134.153
G1 X62.911 Y134.884
G1 X63.223 Y134.979
G1 X63.3 Y135.01
G1 X63.505 Y135.102
G1 X63.841 Y135.26
G1 X64.291 Y135.478
G1 X64.511 Y135.588
G1 X64.818 Y135.75
G1 X65.008 Y135.855
G1 X65.269 Y136.008
G1 X65.426 Y136.106
G1 X65.57 Y136.201
G1 X65.701 Y136.293
G1 X65.761 Y136.337
G1 X65.87 Y136.424
G1 X65.92 Y136.465
G1 X66.007 Y136.546
G1 X66.105 Y136.649
G1 X66.149 Y136.702
G1 X66.182 Y136.751
G1 X66.197 Y136.782
G1 X66.207 Y136.814
G1 X66.213 Y136.848
G1 X66.216 Y136.908
G1 X66.211 Y136.98
G1 X66.201 Y137.07
G1 X66.174 Y137.227
G1 X66.127 Y137.384
G1 X66.063 Y137.543
G1 X65.98 Y137.701
G1 X65.879 Y137.861
G1 X65.76 Y138.02
G1 X65.624 Y138.18
G1 X65.471 Y138.339
G1 X65.301 Y138.499
G1 X65.114 Y138.658
G1 X64.91 Y138.816
G1 X64.69 Y138.974
G1 X64.453 Y139.131
G1 X64.201 Y139.288
G1 X63.933 Y139.443
G1 X63.65 Y139.597
G1 X63.351 Y139.749
G1 X63.037 Y139.9
G1 X62.708 Y140.05
G1 X62.364 Y140.197
G1 X62.006 Y140.343
G1 X61.634 Y140.486
G1 X61.248 Y140.627
G1 X60.847 Y140.766
G1 X60.495 Y140.881
G1 X59.94 Y141.052
G1 X59.325 Y141.233
G1 X58.691 Y141.411
G1 X58.082 Y141.575
G1 X57.666 Y141.681
G1 X57.539 Y141.713
G1 X56.87 Y141.871
G1 X56.741 Y141.666
G1 X55.887 Y140.255
G1 X55.053 Y138.868
G1 Z5 F1206
G0 X55.276 Y132.381 F3600
G1 Z0 F1206
G1 X55.55 Y133.146 F3000
G1 X56.846 Y136.804
G1 X58.404 Y141.209
G1 X61.453 Y137.127
G1 X62.159 Y136.189
G1 X62.537 Y135.695
G1 X62.808 Y135.353
G1 X62.878 Y135.267
G1 X62.992 Y135.135
G1 X63.037 Y135.086
G1 X63.109 Y135.018
G1 X63.137 Y134.997
G1 X63.16 Y134.983
G1 X63.18 Y134.975
G1 X63.197 Y134.973
G1 X63.212 Y134.975
G1 Z5 F1206
G0 X56.87 Y141.871 F3600
G1 Z0 F1206
G1 X54.672 Y142.314 F3000
G1 X54.661 Y142.32
G1 X54.641 Y142.328
G1 X54.573 Y142.347
G1 X54.467 Y142.372
G1 X54.143 Y142.438
G1 X53.674 Y142.525
G1 X52.891 Y142.663
G1 X52.111 Y142.795
G1 X51.895 Y142.83
G1 X49.615 Y143.135
G1 X47.09 Y143.511
G1 Z5 F1206
G0 X43.39 Y162.053 F3600
G1 Z0 F1206
G1 X44.261 Y162.248 F3000
G1 X45.092 Y162.831
G1 X45.849 Y163.804
G1 X46.489 Y165.174
G1 X46.951 Y166.95
G1 X47.144 Y169.096
G1 X46.97 Y171.38
G1 X46.461 Y173.341
G1 X45.755 Y174.785
G1 X44.944 Y175.743
G1 X44.08 Y176.264
G1 X43.2 Y176.376
G1 X42.336 Y176.097
G1 X41.518 Y175.43
G1 X40.782 Y174.373
G1 X40.174 Y172.915
G1 X39.761 Y171.052
G1 X39.642 Y168.845
G1 X39.898 Y166.594
G1 X40.46 Y164.741
G1 X41.194 Y163.408
G1 X42.02 Y162.547
G1 X42.891 Y162.117
G1 X43.39 Y162.053
G1 Z5 F1206
G0 X51.354 Y164.823 F3600
G1 Z0 F1206
G1 X52.206 Y163.463 F3000
G1 X53.154 Y162.558
G1 X54.151 Y162.075
G1 X54.86 Y161.978
G1 X55.863 Y162.174
G1 X56.827 Y162.757
G1 X57.717 Y163.729
G1 X58.493 Y165.092
G1 X59.099 Y166.85
G1 X59.462 Y168.981
G1 X59.487 Y171.361
G1 X59.132 Y173.669
G1 X58.482 Y175.581
G1 X57.65 Y177.012
G1 X56.713 Y177.983
G1 X55.721 Y178.528
G1 X54.709 Y178.666
G1 X53.709 Y178.413
G1 X52.755 Y177.771
G1 X51.879 Y176.741
G1 X51.125 Y175.319
G1 X50.549 Y173.502
G1 X50.231 Y171.322
G1 X50.264 Y168.928
G1 X50.671 Y166.664
G1 X51.354 Y164.823
G1 Z5 F1206
G0 X47.025 Y171.013 F3600
G1 Z0 F1206
G1 X50.214 F3000
G1 Z5 F1206
G0 X56.919 Y182.216 F3600
G1 Z0 F1206
G1 X56.171 Y181.77 F3000
G1 X54.494 Y180.777
G1 X53.748 Y180.331
G1 X53.408 Y180.123
G1 X53.317 Y180.064
G1 X53.314 Y180.06
G1 X51.531 Y179.089
G1 X50.646 Y178.669
G1 X50.411 Y178.561
G1 X50.067 Y178.409
G1 X49.733 Y178.271
G1 X49.408 Y178.145
G1 X49.197 Y178.068
G1 X48.888 Y177.963
G1 X48.588 Y177.871
G1 X48.393 Y177.817
G1 X48.202 Y177.767
G1 X47.971 Y177.714
G1 X47.814 Y177.684
G1 X47.711 Y177.667
G1 X47.554 Y177.648
G1 X47.383 Y177.634
G1 X47.117 Y177.623
G1 X46.876 Y177.618
G1 X46.563 Y177.616
G1 X46.308 Y177.617
G1 X46.123 Y177.619
G1 X45.79 Y177.629
G1 X45.612 Y177.638
G1 X45.483 Y177.648
G1 X45.243 Y177.674
G1 X44.145 Y177.976
G1 X43.401 Y178.3
G1 X43.158 Y178.413
G1 X43.03 Y178.474
G1 X42.765 Y178.606
G1 X42.49 Y178.749
G1 X42.207 Y178.902
G1 X41.918 Y179.062
G1 X41.772 Y179.144
G1 X41.333 Y179.4
G1 X40.9 Y179.664
G1 X40.618 Y179.842
G1 X40.344 Y180.02
G1 X39.928 Y180.3
G1 Z5 F1206
G0 X14.512 Y155.498 F3600
G1 Z0 F1206
G1 X14.551 Y155.457 F3000
G1 X14.625 Y155.37
G1 X14.696 Y155.276
G1 X14.763 Y155.174
G1 X14.795 Y155.12
G1 X14.858 Y155.005
G1 X14.92 Y154.881
G1 X15.006 Y154.678
G1 X15.072 Y154.474
G1 X15.118 Y154.27
G1 X15.146 Y154.065
G1 X15.155 Y153.863
G1 X15.148 Y153.663
G1 X15.123 Y153.466
G1 X15.083 Y153.274
G1 X15.026 Y153.087
G1 X14.956 Y152.907
G1 X14.871 Y152.734
G1 X14.773 Y152.57
G1 X14.661 Y152.415
G1 X14.538 Y152.271
G1 X14.403 Y152.138
G1 X14.258 Y152.017
G1 X14.102 Y151.91
G1 X13.936 Y151.818
G1 X13.762 Y151.74
G1 X13.579 Y151.679
G1 X13.389 Y151.636
G1 X13.192 Y151.611
G1 X12.988 Y151.605
G1 X12.779 Y151.619
G1 X12.73 Y151.626
G1 X12.626 Y151.648
G1 X12.518 Y151.68
G1 X12.405 Y151.72
G1 X12.291 Y151.767
G1 X12.177 Y151.822
G1 X12.12 Y151.851
G1 X12.009 Y151.914
G1 X11.955 Y151.947
G1 X11.851 Y152.017
G1 X11.753 Y152.089
G1 X11.708 Y152.126
G1 X11.623 Y152.202
G1 X11.585 Y152.24
G1 X11.55 Y152.278
G1 X11.422 Y152.435
G1 X11.31 Y152.598
G1 X11.214 Y152.767
G1 X11.133 Y152.94
G1 X11.066 Y153.117
G1 X11.015 Y153.296
G1 X10.978 Y153.478
G1 X10.956 Y153.66
G1 X10.947 Y153.843
G1 X10.953 Y154.025
G1 X10.972 Y154.205
G1 X11.005 Y154.383
G1 X11.052 Y154.558
G1 X11.111 Y154.728
G1 X11.184 Y154.893
G1 X11.269 Y155.053
G1 X11.368 Y155.205
G1 X11.478 Y155.35
G1 X11.601 Y155.486
G1 X11.735 Y155.612
G1 X11.882 Y155.728
G1 X12.04 Y155.833
G1 X12.209 Y155.926
G1 X12.41 Y156.014
G1 X12.501 Y156.042
G1 X12.603 Y156.065
G1 X12.717 Y156.083
G1 X12.808 Y156.093
G1 X12.971 Y156.102
G1 X13.074 Y156.104
G1 X13.282 Y156.1
G1 X13.351 Y156.095
G1 X13.446 Y156.082
G1 X13.476 Y156.077
G1 X13.535 Y156.063
G1 X13.595 Y156.045
G1 X13.691 Y156.009
G1 X13.799 Y155.963
G1 X13.925 Y155.904
G1 X14.041 Y155.845
G1 X14.149 Y155.783
G1 X14.25 Y155.718
G1 X14.297 Y155.685
G1 X14.387 Y155.614
G1 X14.43 Y155.577
G1 X14.512 Y155.498
G1 Z5 F1206
G0 X7.645 Y145.38 F3600
G1 Z0 F1206
G1 X5.753 Y145.41 F3000
G1 X5.427 Y146.127
G1 X5.327 Y146.362
G1 X5.232 Y146.6
G1 X5.15 Y146.823
G1 X5.098 Y146.975
G1 X5.07 Y147.069
G1 X4.983 Y147.43
G1 X4.917 Y147.802
G1 X4.874 Y148.185
G1 X4.851 Y148.579
G1 X4.849 Y148.984
G1 X4.868 Y149.397
G1 X4.908 Y149.819
G1 X4.968 Y150.249
G1 X5.048 Y150.687
G1 X5.148 Y151.132
G1 X5.268 Y151.582
G1 X5.408 Y152.039
G1 X5.567 Y152.5
G1 X5.745 Y152.965
G1 X5.942 Y153.435
G1 X6.157 Y153.907
G1 X6.392 Y154.381
G1 X6.644 Y154.858
G1 X6.915 Y155.335
G1 X7.204 Y155.813
G1 X7.51 Y156.291
G1 X7.834 Y156.768
G1 X8.175 Y157.244
G1 X8.533 Y157.717
G1 X8.716 Y157.95
G1 X8.902 Y158.18
G1 X9.089 Y158.406
G1 X9.279 Y158.629
G1 X9.472 Y158.849
G1 X9.667 Y159.065
G1 X9.865 Y159.278
G1 X10.065 Y159.488
G1 X10.267 Y159.696
G1 X10.473 Y159.9
G1 X10.681 Y160.101
G1 X10.892 Y160.299
G1 X11.106 Y160.495
G1 X11.323 Y160.687
G1 X11.543 Y160.877
G1 X11.766 Y161.065
G1 X11.991 Y161.249
G1 X12.22 Y161.431
G1 X12.453 Y161.611
G1 X12.688 Y161.788
G1 X12.927 Y161.963
G1 X13.169 Y162.135
G1 X13.414 Y162.305
G1 X13.663 Y162.472
G1 X13.85 Y162.595
G1 X14.035 Y162.714
G1 X14.22 Y162.83
G1 X14.405 Y162.943
G1 X14.593 Y163.054
G1 X14.784 Y163.163
G1 X14.98 Y163.272
G1 X15.183 Y163.381
G1 X15.394 Y163.491
G1 X15.613 Y163.601
G1 X15.843 Y163.714
G1 X16.085 Y163.829
G1 X16.341 Y163.947
G1 X16.897 Y164.196
G1 X17.2 Y164.328
G1 X17.865 Y164.609
G1 X18.616 Y164.919
G1 X19.464 Y165.262
G1 X20.421 Y165.644
G1 X21.176 Y165.942
G1 X21.925 Y166.232
G1 X22.667 Y166.516
G1 X23.402 Y166.793
G1 X24.13 Y167.062
G1 X24.851 Y167.325
G1 X25.566 Y167.58
G1 X26.272 Y167.828
G1 X26.972 Y168.069
G1 X27.665 Y168.303
G1 X28.35 Y168.529
G1 X29.028 Y168.749
G1 X29.698 Y168.961
G1 X30.361 Y169.165
G1 X31.016 Y169.363
G1 X31.664 Y169.553
G1 X32.304 Y169.736
G1 X32.936 Y169.911
G1 X33.561 Y170.079
G1 X34.177 Y170.24
G1 X34.786 Y170.393
G1 X35.387 Y170.539
G1 X35.979 Y170.677
G1 X36.704 Y170.839
G1 X37.717 Y171.062
G1 X39.839 Y171.543
G1 Z5 F1206
G0 X10.62 Y123.062 F3600
G1 Z0 F1206
G1 X10.482 Y123.005 F3000
G1 X10.347 Y122.946
G1 X10.088 Y122.822
G1 X9.964 Y122.757
G1 X9.843 Y122.691
G1 X9.726 Y122.623
G1 X9.613 Y122.554
G1 X9.504 Y122.483
G1 X9.399 Y122.411
G1 X9.297 Y122.337
G1 X9.2 Y122.261
G1 X9.106 Y122.185
G1 X9.017 Y122.107
G1 X8.932 Y122.027
G1 X8.851 Y121.947
G1 X8.774 Y121.865
G1 X8.701 Y121.782
G1 X8.633 Y121.697
G1 X8.569 Y121.612
G1 X8.509 Y121.526
G1 X8.454 Y121.438
G1 X8.404 Y121.35
G1 X8.337 Y121.217
G1 X8.269 Y121.068
G1 X8.232 Y120.972
G1 X8.205 Y120.881
G1 X8.187 Y120.786
G1 X8.176 Y120.68
G1 X8.17 Y120.554
G1 X8.168 Y120.281
G1 X8.171 Y120.08
G1 X8.178 Y119.96
G1 X8.191 Y119.858
G1 X8.205 Y119.794
G1 X8.233 Y119.7
G1 X8.272 Y119.598
G1 X8.325 Y119.481
G1 X8.412 Y119.301
G1 X8.503 Y119.132
G1 X8.552 Y119.05
G1 X8.602 Y118.97
G1 X8.654 Y118.892
G1 X8.708 Y118.815
G1 X8.824 Y118.665
G1 X8.885 Y118.592
G1 X8.95 Y118.52
G1 X9.017 Y118.448
G1 X9.087 Y118.377
G1 X9.161 Y118.306
G1 X9.318 Y118.165
G1 X9.49 Y118.024
G1 X9.581 Y117.953
G1 X9.777 Y117.81
G1 X9.99 Y117.663
G1 X10.104 Y117.588
G1 X10.358 Y117.431
G1 X10.629 Y117.276
G1 X10.919 Y117.125
G1 X11.225 Y116.977
G1 X11.547 Y116.833
G1 X11.884 Y116.692
G1 X12.236 Y116.556
G1 X12.602 Y116.424
G1 X12.981 Y116.296
G1 X13.373 Y116.172
G1 X13.777 Y116.054
G1 X14.191 Y115.94
G1 X14.617 Y115.832
G1 X15.051 Y115.729
G1 X15.495 Y115.631
G1 X15.947 Y115.539
G1 X16.407 Y115.453
G1 X16.873 Y115.373
G1 X17.346 Y115.299
G1 X17.824 Y115.231
G1 X18.307 Y115.171
G1 X18.794 Y115.117
G1 X19.284 Y115.07
G1 X19.777 Y115.03
G1 X20.18 Y115.002
G1 X20.579 Y114.979
G1 X20.975 Y114.96
G1 X21.369 Y114.946
G1 X21.761 Y114.935
G1 X22.151 Y114.929
G1 X22.541 Y114.928
G1 X22.931 Y114.93
G1 X23.321 Y114.938
G1 X23.712 Y114.95
G1 X24.106 Y114.966
G1 X24.501 Y114.987
G1 X24.9 Y115.013
G1 X25.302 Y115.043
G1 X25.708 Y115.078
G1 X26.119 Y115.118
G1 X26.536 Y115.162
G1 X26.958 Y115.212
G1 X27.388 Y115.266
G1 X27.824 Y115.325
G1 X28.268 Y115.389
G1 X28.721 Y115.457
G1 X29.182 Y115.531
G1 X29.653 Y115.61
G1 X31.307 Y115.878
G1 X32.925 Y116.112
G1 X34.505 Y116.312
G1 X36.045 Y116.477
G1 X37.545 Y116.609
G1 X39.002 Y116.706
G1 X40.416 Y116.77
G1 X41.785 Y116.8
G1 X43.107 Y116.797
G1 X44.381 Y116.761
G1 X45.605 Y116.692
G1 X46.778 Y116.589
G1 X47.899 Y116.454
G1 X48.966 Y116.286
G1 X49.978 Y116.086
G1 X50.933 Y115.853
G1 X51.829 Y115.588
G1 X52.666 Y115.292
G1 X53.441 Y114.963
G1 X54.154 Y114.602
G1 X54.802 Y114.21
G1 X55.385 Y113.787
G1 X55.901 Y113.332
G1 X56.348 Y112.846
G1 X56.464 Y112.702
G1 X56.573 Y112.558
G1 X56.675 Y112.415
G1 X56.771 Y112.27
G1 X56.863 Y112.122
G1 X56.951 Y111.968
G1 X57.036 Y111.808
G1 X57.119 Y111.639
G1 X57.201 Y111.459
G1 X57.283 Y111.268
G1 X57.366 Y111.063
G1 X57.451 Y110.843
G1 X57.564 Y110.54
G1 X57.673 Y110.233
G1 X57.78 Y109.921
G1 X57.885 Y109.605
G1 X57.988 Y109.282
G1 X58.088 Y108.951
G1 X58.187 Y108.613
G1 X58.285 Y108.265
G1 X58.381 Y107.907
G1 X58.477 Y107.538
G1 X58.571 Y107.157
G1 X58.666 Y106.762
G1 X58.759 Y106.354
G1 X58.853 Y105.93
G1 X58.947 Y105.491
G1 X59.041 Y105.034
G1 X59.136 Y104.56
G1 X59.232 Y104.067
G1 X59.329 Y103.554
G1 X59.427 Y103.02
G1 X59.526 Y102.464
G1 X59.627 Y101.886
G1 X59.73 Y101.284
G1 X59.977 Y99.807
G1 X60.218 Y98.333
G1 X60.405 Y97.155
G1 X60.51 Y96.465
G1 X60.585 Y95.939
G1 X60.618 Y95.679
G1 X60.639 Y95.49
G1 X60.644 Y95.422
G1 X60.646 Y95.372
G1 X60.645 Y95.34
G1 X60.64 Y95.325
G1 X60.924 Y93.17
G1 X60.935 Y93.169
G1 X60.947 Y93.165
G1 X60.958 Y93.158
G1 X60.969 Y93.146
G1 X60.98 Y93.13
G1 X60.991 Y93.107
G1 X61.015 Y93.041
G1 X61.042 Y92.944
G1 X61.073 Y92.81
G1 X61.129 Y92.526
G1 X61.201 Y92.128
G1 X61.367 Y91.156
G1 X61.681 Y89.296
G1 X61.852 Y88.31
G1 X61.969 Y87.695
G1 X62.401 Y85.202
G1 X62.404 Y85.2
G1 X62.413 Y85.183
G1 X62.432 Y85.128
G1 X62.476 Y84.967
G1 X62.543 Y84.684
G1 X62.618 Y84.328
G1 X62.76 Y83.64
G1 X62.902 Y82.981
G1 X63.055 Y82.296
G1 X63.217 Y81.59
G1 X63.388 Y80.872
G1 X63.565 Y80.149
G1 X63.747 Y79.426
G1 X63.931 Y78.713
G1 X64.116 Y78.014
G1 X64.3 Y77.338
G1 X64.482 Y76.691
G1 X64.659 Y76.081
G1 X65.029 Y74.869
G1 X65.411 Y73.682
G1 X65.806 Y72.517
G1 X66.214 Y71.377
G1 X66.636 Y70.259
G1 X67.071 Y69.164
G1 X67.52 Y68.091
G1 X67.983 Y67.039
G1 X68.461 Y66.01
G1 X68.953 Y65.002
G1 X69.459 Y64.014
G1 X69.98 Y63.047
G1 X70.516 Y62.099
G1 X71.068 Y61.172
G1 X71.635 Y60.264
G1 X72.217 Y59.375
G1 X72.815 Y58.504
G1 X73.43 Y57.651
G1 X74.061 Y56.817
G1 X74.707 Y56
G1 X75.371 Y55.2
G1 X76.052 Y54.417
G1 X76.749 Y53.65
G1 X77.464 Y52.899
G1 X77.823 Y52.535
G1 X78.183 Y52.177
G1 X78.545 Y51.826
G1 X78.909 Y51.48
G1 X79.277 Y51.14
G1 X79.649 Y50.805
G1 X80.026 Y50.473
G1 X80.408 Y50.146
G1 X80.796 Y49.821
G1 X81.191 Y49.499
G1 X81.594 Y49.179
G1 X82.004 Y48.861
G1 X82.424 Y48.543
G1 X82.853 Y48.227
G1 X83.292 Y47.91
G1 X83.743 Y47.592
G1 X84.204 Y47.273
G1 X84.679 Y46.953
G1 X85.166 Y46.631
G1 X85.667 Y46.306
G1 X86.182 Y45.977
G1 X86.713 Y45.645
G1 X87.259 Y45.309
G1 X87.821 Y44.967
G1 X88.879 Y44.341
G1 X89.933 Y43.737
G1 X90.985 Y43.155
G1 X92.034 Y42.595
G1 X93.08 Y42.058
G1 X94.123 Y41.542
G1 X95.163 Y41.049
G1 X96.199 Y40.578
G1 X97.232 Y40.13
G1 X98.262 Y39.704
G1 X99.289 Y39.3
G1 X100.311 Y38.919
G1 X101.33 Y38.56
G1 X102.346 Y38.224
G1 X103.357 Y37.91
G1 X104.364 Y37.619
G1 X105.368 Y37.35
G1 X106.367 Y37.104
G1 X107.362 Y36.881
G1 X108.352 Y36.68
G1 X109.338 Y36.502
G1 X110.32 Y36.347
G1 X111.297 Y36.215
G1 X112.269 Y36.106
G1 X112.615 Y36.072
G1 X112.963 Y36.042
G1 X113.314 Y36.015
G1 X113.666 Y35.99
G1 X114.02 Y35.969
G1 X114.375 Y35.951
G1 X114.731 Y35.935
G1 X115.087 Y35.923
G1 X115.445 Y35.914
G1 X115.802 Y35.907
G1 X116.159 Y35.904
G1 X116.515 Y35.903
G1 X116.871 Y35.906
G1 X117.226 Y35.912
G1 X117.579 Y35.92
G1 X117.931 Y35.932
G1 X118.281 Y35.946
G1 X118.629 Y35.964
G1 X118.975 Y35.984
G1 X119.318 Y36.008
G1 X119.658 Y36.034
G1 X119.995 Y36.064
G1 X120.328 Y36.096
G1 X121.151 Y36.184
G1 X121.508 Y36.217
G1 X121.627 Y36.224
G1 X121.651 Y36.223
G1 X123.905 Y36.611
G1 X124.955 Y36.851
G1 X125.257 Y36.922
G1 X125.561 Y36.995
G1 X125.866 Y37.072
G1 X126.172 Y37.152
G1 X126.48 Y37.235
G1 X126.787 Y37.32
G1 X127.096 Y37.409
G1 X127.404 Y37.5
G1 X127.712 Y37.593
G1 X128.02 Y37.689
G1 X128.328 Y37.788
G1 X128.635 Y37.889
G1 X128.94 Y37.993
G1 X129.244 Y38.098
G1 X129.547 Y38.206
G1 X129.848 Y38.316
G1 X130.147 Y38.427
G1 X130.443 Y38.541
G1 X130.737 Y38.656
G1 X131.028 Y38.773
G1 X131.317 Y38.892
G1 X131.601 Y39.012
G1 X131.883 Y39.134
G1 X132.304 Y39.32
G1 X132.503 Y39.402
G1 X132.625 Y39.446
G1 X132.695 Y39.467
G1 X132.746 Y39.477
G1 X132.77 Y39.478
G1 X132.785 Y39.474
G1 X132.792 Y39.465
G1 X135.028 Y40.653
G1 X135.601 Y40.97
G1 X136.088 Y41.243
G1 X136.575 Y41.524
G1 X137.061 Y41.813
G1 X137.548 Y42.111
G1 X138.034 Y42.417
G1 X138.52 Y42.732
G1 X139.006 Y43.054
G1 X139.491 Y43.385
G1 X139.976 Y43.724
G1 X140.461 Y44.071
G1 X140.946 Y44.427
G1 X141.43 Y44.79
G1 X141.914 Y45.162
G1 X142.397 Y45.542
G1 X142.88 Y45.93
G1 X143.362 Y46.326
G1 X143.845 Y46.73
G1 X144.326 Y47.142
G1 X144.807 Y47.562
G1 X145.288 Y47.991
G1 X145.767 Y48.427
G1 X146.247 Y48.871
G1 X146.725 Y49.323
G1 X147.269 Y49.848
G1 X147.519 Y50.097
G1 X148.077 Y50.67
G1 X148.763 Y51.385
G1 X149.518 Y52.182
G1 X150.284 Y53
G1 X151.324 Y54.114
G1 X152.532 Y55.399
G1 X153.325 Y56.233
G1 X154.039 Y56.974
G1 X154.261 Y57.204
G1 X154.893 Y57.847
G1 X155.481 Y58.435
G1 X155.857 Y58.804
G1 X156.225 Y59.161
G1 X156.844 Y59.751
G1 X157.449 Y60.318
G1 X158.04 Y60.861
G1 X158.619 Y61.381
G1 X159.186 Y61.878
G1 X159.741 Y62.352
G1 X160.284 Y62.804
G1 X160.816 Y63.234
G1 X161.337 Y63.642
G1 X161.848 Y64.029
G1 X162.349 Y64.394
G1 X162.84 Y64.738
G1 X163.323 Y65.061
G1 X163.796 Y65.365
G1 X164.261 Y65.647
G1 X164.719 Y65.91
G1 X165.168 Y66.154
G1 X165.611 Y66.378
G1 X166.047 Y66.583
G1 X166.476 Y66.769
G1 X166.899 Y66.937
G1 X167.317 Y67.086
G1 X167.73 Y67.218
G1 X168.138 Y67.331
G1 X168.394 Y67.395
G1 X168.559 Y67.43
G1 X168.664 Y67.448
G1 X168.772 Y67.462
G1 X168.887 Y67.472
G1 X169.085 Y67.483
G1 X169.327 Y67.488
G1 X169.873 Y67.49
G1 X170.306 Y67.487
G1 X170.563 Y67.48
G1 X170.803 Y67.467
G1 X171.032 Y67.449
G1 X171.258 Y67.423
G1 X171.488 Y67.39
G1 X171.73 Y67.346
G1 X171.99 Y67.293
G1 X172.275 Y67.228
G1 X172.593 Y67.151
G1 X173.146 Y67.01
G1 X173.42 Y66.937
G1 X173.694 Y66.862
G1 X173.968 Y66.784
G1 X174.246 Y66.702
G1 X174.528 Y66.615
G1 X174.817 Y66.523
G1 X175.113 Y66.426
G1 X175.419 Y66.322
G1 X175.736 Y66.212
G1 X176.066 Y66.093
G1 X176.41 Y65.967
G1 X176.77 Y65.832
G1 X177.148 Y65.687
G1 X177.545 Y65.533
G1 X177.963 Y65.367
G1 X178.868 Y65.002
G1 X179.877 Y64.586
G1 X181.003 Y64.116
G1 X182.258 Y63.585
G1 X182.938 Y63.296
G1 X183.532 Y63.06
G1 X184.1 Y62.868
G1 X184.641 Y62.722
G1 X185.155 Y62.618
G1 X185.643 Y62.557
G1 X186.102 Y62.536
G1 X186.534 Y62.555
G1 X186.938 Y62.61
G1 X187.312 Y62.699
G1 X187.657 Y62.821
G1 X187.971 Y62.974
G1 X188.255 Y63.155
G1 X188.507 Y63.361
G1 X188.727 Y63.592
G1 X188.915 Y63.844
G1 X189.069 Y64.115
G1 X189.19 Y64.404
G1 X189.276 Y64.709
G1 X189.329 Y65.029
G1 X189.347 Y65.362
G1 X189.33 Y65.707
G1 X189.28 Y66.063
G1 X189.195 Y66.43
G1 X189.076 Y66.808
G1 X188.924 Y67.194
G1 X188.738 Y67.591
G1 X188.519 Y67.996
G1 X188.267 Y68.412
G1 X187.983 Y68.836
G1 X187.666 Y69.271
G1 X187.317 Y69.715
G1 X186.936 Y70.17
G1 X186.523 Y70.635
G1 X186.079 Y71.112
G1 X185.603 Y71.6
G1 X185.096 Y72.1
G1 X184.558 Y72.613
G1 X183.989 Y73.138
G1 X183.388 Y73.677
G1 X182.756 Y74.23
G1 X182.093 Y74.797
G1 X181.399 Y75.377
G1 X180.961 Y75.735
G1 X180.519 Y76.087
G1 X180.074 Y76.432
G1 X179.625 Y76.77
G1 X179.173 Y77.102
G1 X178.717 Y77.427
G1 X178.258 Y77.746
G1 X177.796 Y78.058
G1 X177.33 Y78.362
G1 X176.862 Y78.66
G1 X176.39 Y78.952
G1 X175.916 Y79.236
G1 X175.439 Y79.513
G1 X174.959 Y79.783
G1 X174.477 Y80.046
G1 X173.992 Y80.302
G1 X173.505 Y80.55
G1 X173.015 Y80.792
G1 X172.523 Y81.026
G1 X172.029 Y81.253
G1 X171.533 Y81.472
G1 X171.035 Y81.684
G1 X170.535 Y81.888
G1 X170.033 Y82.085
G1 X169.743 Y82.194
G1 X169.458 Y82.299
G1 X169.176 Y82.399
G1 X168.898 Y82.494
G1 X168.622 Y82.585
G1 X168.348 Y82.672
G1 X168.075 Y82.755
G1 X167.803 Y82.833
G1 X167.531 Y82.908
G1 X167.259 Y82.979
G1 X166.986 Y83.046
G1 X166.712 Y83.109
G1 X166.436 Y83.17
G1 X166.157 Y83.227
G1 X165.875 Y83.281
G1 X165.589 Y83.331
G1 X165.299 Y83.379
G1 X165.004 Y83.424
G1 X164.704 Y83.467
G1 X164.398 Y83.507
G1 X164.085 Y83.544
G1 X163.765 Y83.58
G1 X163.438 Y83.613
G1 X163.103 Y83.644
G1 X162.951 Y83.656
G1 X162.775 Y83.666
G1 X162.574 Y83.676
G1 X162.11 Y83.691
G1 X161.572 Y83.701
G1 X160.975 Y83.707
G1 X160.331 Y83.708
G1 X159.654 Y83.705
G1 X158.959 Y83.698
G1 X158.259 Y83.686
G1 X157.568 Y83.67
G1 X156.899 Y83.649
G1 X156.267 Y83.625
G1 X154.983 Y83.566
G1 X154.024 Y83.529
G1 X153.095 Y83.499
G1 X152.197 Y83.477
G1 X151.332 Y83.463
G1 X150.503 Y83.456
G1 X149.713 Y83.458
G1 X149.332 Y83.461
G1 X148.962 Y83.466
G1 X148.602 Y83.474
G1 X148.253 Y83.483
G1 X147.915 Y83.494
G1 X147.588 Y83.508
G1 X147.273 Y83.523
G1 X146.97 Y83.54
G1 X146.679 Y83.559
G1 X146.4 Y83.58
G1 X145.969 Y83.617
G1 X145.541 Y83.657
G1 X145.115 Y83.702
G1 X144.691 Y83.75
G1 X144.27 Y83.802
G1 X143.851 Y83.859
G1 X143.434 Y83.919
G1 X143.019 Y83.984
G1 X142.605 Y84.052
G1 X142.193 Y84.125
G1 X141.782 Y84.202
G1 X141.373 Y84.283
G1 X140.964 Y84.368
G1 X140.557 Y84.457
G1 X140.15 Y84.551
G1 X139.744 Y84.649
G1 X139.338 Y84.751
G1 X138.933 Y84.858
G1 X138.527 Y84.969
G1 X138.122 Y85.085
G1 X137.716 Y85.205
G1 X137.31 Y85.329
G1 X136.904 Y85.458
G1 X136.497 Y85.592
G1 X136.001 Y85.76
G1 X135.504 Y85.936
G1 X135.006 Y86.118
G1 X134.507 Y86.307
G1 X134.006 Y86.503
G1 X133.505 Y86.706
G1 X133.002 Y86.916
G1 X132.498 Y87.132
G1 X131.994 Y87.356
G1 X131.489 Y87.586
G1 X130.982 Y87.823
G1 X130.475 Y88.066
G1 X129.968 Y88.316
G1 X129.459 Y88.573
G1 X128.951 Y88.836
G1 X128.441 Y89.106
G1 X127.931 Y89.383
G1 X127.42 Y89.666
G1 X126.91 Y89.955
G1 X126.398 Y90.252
G1 X125.887 Y90.554
G1 X125.375 Y90.863
G1 X124.863 Y91.178
G1 X124.351 Y91.5
G1 X124.044 Y91.7
G1 X123.671 Y91.951
G1 X123.239 Y92.248
G1 X122.753 Y92.588
G1 X122.216 Y92.968
G1 X121.634 Y93.383
G1 X120.356 Y94.307
G1 X119.67 Y94.808
G1 X118.227 Y95.868
G1 X116.725 Y96.983
G1 X115.963 Y97.552
G1 X114.445 Y98.693
G1 X113.698 Y99.258
G1 X112.966 Y99.814
G1 X111.566 Y100.887
G1 X110.286 Y101.881
G1 X109.702 Y102.34
G1 X109.164 Y102.767
G1 X108.291 Y103.47
G1 X107.44 Y104.163
G1 X106.611 Y104.849
G1 X105.805 Y105.526
G1 X105.019 Y106.196
G1 X104.255 Y106.86
G1 X103.51 Y107.516
G1 X102.786 Y108.167
G1 X102.081 Y108.812
G1 X101.395 Y109.452
G1 X100.728 Y110.087
G1 X100.079 Y110.718
G1 X99.447 Y111.345
G1 X98.833 Y111.969
G1 X98.235 Y112.59
G1 X97.654 Y113.208
G1 X97.088 Y113.825
G1 X96.537 Y114.44
G1 X96.002 Y115.054
G1 X95.48 Y115.667
G1 X94.973 Y116.28
G1 X94.479 Y116.894
G1 X93.999 Y117.508
G1 X93.53 Y118.123
G1 X92.908 Y118.969
G1 X92.305 Y119.825
G1 X91.721 Y120.689
G1 X91.155 Y121.564
G1 X90.607 Y122.45
G1 X90.077 Y123.347
G1 X89.565 Y124.257
G1 X89.07 Y125.18
G1 X88.591 Y126.117
G1 X88.13 Y127.069
G1 X87.684 Y128.036
G1 X87.254 Y129.019
G1 X86.841 Y130.018
G1 X86.442 Y131.036
G1 X86.059 Y132.071
G1 X85.69 Y133.125
G1 X85.335 Y134.2
G1 X84.995 Y135.294
G1 X84.669 Y136.41
G1 X84.355 Y137.547
G1 X84.056 Y138.707
G1 X83.769 Y139.891
G1 X83.494 Y141.098
G1 X83.232 Y142.33
G1 X82.988 Y143.505
G1 X82.763 Y144.557
G1 X82.656 Y145.041
G1 X82.553 Y145.5
G1 X82.453 Y145.935
G1 X82.355 Y146.348
G1 X82.259 Y146.741
G1 X82.165 Y147.115
G1 X82.072 Y147.472
G1 X81.979 Y147.813
G1 X81.886 Y148.141
G1 X81.793 Y148.458
G1 X81.699 Y148.764
G1 X81.604 Y149.061
G1 X81.507 Y149.352
G1 X81.408 Y149.638
G1 X81.306 Y149.92
G1 X81.201 Y150.201
G1 X81.092 Y150.482
G1 X80.979 Y150.764
G1 X80.861 Y151.05
G1 X80.739 Y151.341
G1 X80.459 Y151.971
G1 X80.16 Y152.594
G1 X79.842 Y153.21
G1 X79.505 Y153.821
G1 X79.147 Y154.426
G1 X78.77 Y155.025
G1 X78.371 Y155.619
G1 X77.952 Y156.209
G1 X77.512 Y156.794
G1 X77.05 Y157.375
G1 X76.567 Y157.952
G1 X76.062 Y158.525
G1 X75.534 Y159.096
G1 X74.984 Y159.663
G1 X74.411 Y160.228
G1 X73.815 Y160.791
G1 X73.196 Y161.352
G1 X72.552 Y161.911
G1 X71.885 Y162.469
G1 X71.193 Y163.026
G1 X70.477 Y163.583
G1 X69.736 Y164.139
G1 X68.969 Y164.695
G1 X68.177 Y165.252
G1 X67.918 Y165.431
G1 X67.103 Y165.979
G1 X66.538 Y166.349
G1 X65.964 Y166.719
G1 X65.388 Y167.083
G1 X64.819 Y167.436
G1 X64.538 Y167.608
G1 X63.991 Y167.938
G1 X63.468 Y168.247
G1 X62.976 Y168.529
G1 X62.523 Y168.781
G1 X62.314 Y168.895
G1 X62.117 Y168.999
G1 X61.535 Y169.293
G1 X59.523 Y170.325
G1 Z5 F1206
G0 X95.418 Y115.742 F3600
G1 Z0 F1206
G1 X93.086 Y114.761 F3000
G1 X88.996 Y112.971
G1 X80.92 Y109.433
G1 X77.388 Y107.889
G1 X76.938 Y107.695
G1 X76.93 Y107.7
G1 X76.902 Y107.73
G1 X76.852 Y107.799
G1 X76.734 Y107.977
G1 X89.5 Y124.376
G1 Z5 F1206
G0 X104.26 Y106.855 F3600
G1 Z0 F1206
G1 X102.651 Y105.457 F3000
G1 X102.631 Y105.442
G1 X102.391 Y105.218
G1 X101.688 Y104.545
G1 X99.948 Y102.861
G1 X97.587 Y100.564
G1 X93.543 Y96.618
G1 X91.268 Y94.408
G1 X89.866 Y93.053
G1 X89.162 Y92.38
G1 X88.971 Y92.202
G1 X88.92 Y92.156
G1 X88.9 Y92.141
G1 X88.879 Y92.144
G1 X88.846 Y92.157
G1 X88.799 Y92.184
G1 X88.75 Y92.218
G1 X88.727 Y92.238
G1 X88.714 Y92.251
G1 X88.705 Y92.269
G1 X88.701 Y92.296
G1 X88.702 Y92.335
G1 X88.712 Y92.392
G1 X88.731 Y92.469
G1 X88.76 Y92.572
G1 X88.801 Y92.704
G1 X88.856 Y92.87
G1 X89.014 Y93.317
G1 X89.243 Y93.946
G1 X89.557 Y94.79
G1 X90.212 Y96.531
G1 X92.333 Y102.123
G1 X96.049 Y111.909
G1 X96.88 Y114.055
G1 Z5 F1206
G0 X109.984 Y102.118 F3600
G1 Z0 F1206
G1 X108.53 Y97.717 F3000
G1 X104.643 Y85.988
G1 X102.999 Y81.029
G1 X102.887 Y80.692
G1 X102.886 Y80.688
G1 X102.892 Y80.667
G1 X102.908 Y80.642
G1 X102.933 Y80.614
G1 X102.966 Y80.586
G1 X103.016 Y80.551
G1 X103.188 Y80.449
G1 X111.144 Y88.913
G1 X113.518 Y91.43
G1 X115.324 Y93.337
G1 X116.103 Y94.155
G1 X116.42 Y94.481
G1 X116.468 Y94.529
G1 X118.078 Y95.979
G1 Z5 F1206
G0 X123.058 Y92.374 F3600
G1 Z0 F1206
G1 X122.473 Y90.225 F3000
G1 X122.484 Y90.214
G1 X122.492 Y90.196
G1 X122.497 Y90.167
G1 X122.496 Y90.124
G1 X122.49 Y90.063
G1 X122.477 Y89.982
G1 X122.457 Y89.877
G1 X122.391 Y89.578
G1 X122.343 Y89.379
G1 X122.213 Y88.862
G1 X121.919 Y87.738
G1 X121.487 Y86.114
G1 X120.653 Y83.009
G1 X119.613 Y79.149
G1 X118.731 Y75.866
G1 X118.063 Y73.368
G1 X117.729 Y72.104
G1 X117.646 Y71.782
G1 X117.64 Y71.755
G1 X117.646 Y71.737
G1 X117.652 Y71.726
G1 X117.683 Y71.691
G1 X117.728 Y71.653
G1 X117.781 Y71.617
G1 X117.835 Y71.586
G1 X117.885 Y71.563
G1 X117.912 Y71.555
G1 X117.934 Y71.554
G1 X117.941 Y71.557
G1 X117.947 Y71.561
G1 X118.884 Y72.614
G1 X125.714 Y80.261
G1 X130.18 Y85.255
G1 X130.45 Y85.554
G1 X132.133 Y87.294
G1 Z5 F1206
G0 X136.216 Y85.686 F3600
G1 Z0 F1206
G1 X136.215 Y83.087 F3000
G1 X136.15 Y79.958
G1 X135.934 Y70.023
G1 X135.854 Y66.034
G1 X135.842 Y65.265
G1 X135.84 Y65.102
G1 X135.841 Y65.08
G1 X135.894 Y65.153
G1 X136.43 Y65.94
G1 X137.99 Y68.253
G1 X140.235 Y71.594
G1 X143.132 Y75.914
G1 X144.962 Y78.631
G1 X146.091 Y80.3
G1 X146.748 Y81.26
G1 X146.855 Y81.411
G1 X146.872 Y81.431
G1 X148.221 Y83.484
G1 Z5 F1206
G0 X104.501 Y23.229 F3600
G1 Z0 F1206
G1 X104.678 Y23.476 F3000
G1 X104.717 Y23.528
G1 X104.811 Y23.643
G1 X104.926 Y23.77
G1 X104.989 Y23.837
G1 X105.127 Y23.978
G1 X105.277 Y24.124
G1 X105.436 Y24.272
G1 X105.684 Y24.492
G1 X105.851 Y24.634
G1 X106.017 Y24.767
G1 X106.176 Y24.891
G1 X106.328 Y25
G1 X106.399 Y25.049
G1 X106.581 Y25.168
G1 X106.764 Y25.282
G1 X106.949 Y25.392
G1 X107.136 Y25.497
G1 X107.325 Y25.597
G1 X107.516 Y25.693
G1 X107.71 Y25.785
G1 X107.906 Y25.872
G1 X108.105 Y25.955
G1 X108.307 Y26.034
G1 X108.512 Y26.108
G1 X108.72 Y26.179
G1 X108.932 Y26.245
G1 X109.147 Y26.308
G1 X109.367 Y26.366
G1 X109.59 Y26.421
G1 X109.818 Y26.472
G1 X110.049 Y26.519
G1 X110.286 Y26.563
G1 X110.527 Y26.603
G1 X110.773 Y26.639
G1 X111.024 Y26.672
G1 X111.28 Y26.701
G1 X111.541 Y26.727
G1 X111.839 Y26.75
G1 X112.138 Y26.767
G1 X112.437 Y26.775
G1 X112.737 Y26.777
G1 X113.037 Y26.772
G1 X113.335 Y26.76
G1 X113.633 Y26.741
G1 X113.928 Y26.715
G1 X114.222 Y26.683
G1 X114.512 Y26.644
G1 X114.799 Y26.599
G1 X115.082 Y26.547
G1 X115.361 Y26.49
G1 X115.634 Y26.426
G1 X115.902 Y26.356
G1 X116.164 Y26.28
G1 X116.42 Y26.198
G1 X116.669 Y26.111
G1 X116.91 Y26.018
G1 X117.142 Y25.92
G1 X117.367 Y25.816
G1 X117.582 Y25.707
G1 X117.788 Y25.592
G1 X118.012 Y25.454
G1 X118.216 Y25.316
G1 X118.38 Y25.197
G1 X118.513 Y25.092
G1 X118.576 Y25.037
G1 X112.474 Y24.615
G1 X111.919 Y24.491
G1 X111.694 Y24.43
G1 X111.482 Y24.367
G1 X111.282 Y24.302
G1 X111.091 Y24.235
G1 X110.909 Y24.163
G1 X110.734 Y24.087
G1 X110.648 Y24.047
G1 X110.48 Y23.963
G1 X110.314 Y23.873
G1 X110.231 Y23.825
G1 X110.066 Y23.724
G1 X109.899 Y23.615
G1 X109.729 Y23.497
G1 X109.61 Y23.409
G1 X109.489 Y23.316
G1 X109.366 Y23.216
G1 X109.242 Y23.11
G1 X109.117 Y22.998
G1 X108.991 Y22.881
G1 X108.863 Y22.759
G1 X108.735 Y22.632
G1 X108.607 Y22.5
G1 X108.478 Y22.364
G1 X108.221 Y22.078
G1 X108.093 Y21.93
G1 X107.965 Y21.778
G1 X107.838 Y21.622
G1 X107.712 Y21.463
G1 X107.587 Y21.301
G1 X107.463 Y21.137
G1 X107.341 Y20.969
G1 X107.221 Y20.8
G1 X107.102 Y20.629
G1 X106.985 Y20.455
G1 X106.871 Y20.28
G1 X106.759 Y20.104
G1 X106.578 Y19.801
G1 X106.35 Y19.401
G1 X106.096 Y18.944
G1 X105.839 Y18.472
G1 X105.529 Y17.888
G1 X105.35 Y17.538
G1 X105.269 Y17.369
G1 X105.242 Y17.308
G1 X105.225 Y17.265
G1 X105.219 Y17.242
G1 Z5 F1206
G0 X108.261 Y13.021 F3600
G1 Z0 F1206
G1 Y13.035 F3000
G1 X108.275 Y13.127
G1 X108.463 Y14.095
G1 X108.613 Y14.848
G1 X108.686 Y15.184
G1 X108.763 Y15.512
G1 X108.843 Y15.833
G1 X108.927 Y16.147
G1 X109.015 Y16.453
G1 X109.105 Y16.752
G1 X109.2 Y17.044
G1 X109.298 Y17.327
G1 X109.399 Y17.604
G1 X109.504 Y17.873
G1 X109.612 Y18.134
G1 X109.724 Y18.388
G1 X109.839 Y18.634
G1 X109.958 Y18.872
G1 X110.08 Y19.103
G1 X110.206 Y19.326
G1 X110.335 Y19.542
G1 X110.467 Y19.75
G1 X110.603 Y19.95
G1 X110.742 Y20.143
G1 X110.885 Y20.328
G1 X111.031 Y20.505
G1 X111.181 Y20.674
G1 X111.231 Y20.728
G1 X111.345 Y20.841
G1 X111.408 Y20.9
G1 X111.547 Y21.024
G1 X111.703 Y21.154
G1 X111.874 Y21.291
G1 X112.061 Y21.434
G1 X112.262 Y21.582
G1 X112.478 Y21.735
G1 X112.826 Y21.973
G1 X113.204 Y22.221
G1 X113.95 Y22.695
G1 X114.123 Y22.809
G1 X114.135 Y22.818
G1 X118.783 Y24.945
G1 X118.856 Y25.213
G1 X119.136 Y26.294
G1 X119.899 Y29.276
G1 X120.77 Y32.706
G1 X121.343 Y34.975
G1 X121.639 Y36.165
G1 X121.651 Y36.223
G1 Z5 F1206
G0 X115.855 Y15.032 F3600
G1 Z0 F1206
G1 X115.839 Y15.049 F3000
G1 X115.832 Y15.076
G1 X115.834 Y15.112
G1 X115.844 Y15.156
G1 X115.862 Y15.209
G1 X115.887 Y15.269
G1 X115.919 Y15.336
G1 X115.958 Y15.409
G1 X116.055 Y15.573
G1 X116.111 Y15.663
G1 X116.173 Y15.756
G1 X116.311 Y15.954
G1 X116.464 Y16.162
G1 X116.631 Y16.375
G1 X116.809 Y16.59
G1 X116.9 Y16.696
G1 X116.993 Y16.801
G1 X117.087 Y16.904
G1 X117.182 Y17.005
G1 X117.388 Y17.214
G1 X117.604 Y17.419
G1 X117.829 Y17.618
G1 X118.063 Y17.813
G1 X118.306 Y18.004
G1 X118.557 Y18.189
G1 X118.816 Y18.369
G1 X119.084 Y18.545
G1 X119.36 Y18.715
G1 X119.644 Y18.879
G1 X119.935 Y19.039
G1 X120.234 Y19.192
G1 X120.539 Y19.341
G1 X120.852 Y19.483
G1 X121.172 Y19.62
G1 X121.499 Y19.751
G1 X121.831 Y19.876
G1 X122.171 Y19.995
G1 X122.516 Y20.108
G1 X122.867 Y20.214
G1 X123.224 Y20.314
G1 X123.586 Y20.408
G1 X123.954 Y20.495
G1 X124.327 Y20.576
G1 X124.612 Y20.631
G1 X124.9 Y20.68
G1 X125.19 Y20.723
G1 X125.481 Y20.76
G1 X125.772 Y20.79
G1 X126.063 Y20.815
G1 X126.354 Y20.833
G1 X126.643 Y20.846
G1 X126.929 Y20.852
G1 X127.213 Y20.853
G1 X127.493 Y20.848
G1 X127.768 Y20.836
G1 X128.039 Y20.819
G1 X128.303 Y20.797
G1 X128.561 Y20.768
G1 X128.812 Y20.734
G1 X129.054 Y20.694
G1 X129.288 Y20.649
G1 X129.513 Y20.597
G1 X129.727 Y20.541
G1 X129.931 Y20.479
G1 X130.123 Y20.411
G1 X130.303 Y20.338
G1 X130.511 Y20.239
G1 X130.628 Y20.184
G1 X130.77 Y20.122
G1 X130.863 Y20.087
G1 X130.943 Y20.062
G1 X131.005 Y20.047
G1 X131.035 Y20.044
G1 X131.057 Y20.047
G1 X131.064 Y20.051
G1 X131.068 Y20.055
G1 X131.069 Y20.062
G1 X124.45 Y18.485
G1 X124.438 Y18.474
G1 X124.353 Y18.428
G1 X124.164 Y18.334
G1 X123.803 Y18.164
G1 X123.485 Y18.016
G1 X123.191 Y17.871
G1 X123.01 Y17.775
G1 X122.84 Y17.679
G1 X122.677 Y17.581
G1 X122.521 Y17.48
G1 X122.37 Y17.376
G1 X122.22 Y17.265
G1 X122.072 Y17.149
G1 X121.922 Y17.024
G1 X121.69 Y16.82
G1 X121.524 Y16.664
G1 X121.36 Y16.502
G1 X121.198 Y16.334
G1 X121.039 Y16.159
G1 X120.883 Y15.978
G1 X120.728 Y15.79
G1 X120.577 Y15.596
G1 X120.428 Y15.396
G1 X120.281 Y15.188
G1 X120.136 Y14.974
G1 X119.993 Y14.753
G1 X119.853 Y14.525
G1 X119.714 Y14.289
G1 X119.578 Y14.047
G1 X119.444 Y13.798
G1 X119.312 Y13.541
G1 X119.181 Y13.277
G1 X119.053 Y13.005
G1 X118.926 Y12.726
G1 X118.801 Y12.439
G1 X118.678 Y12.145
G1 X118.556 Y11.843
G1 X118.437 Y11.533
G1 X118.318 Y11.215
G1 X118.167 Y10.796
G1 X118.037 Y10.423
G1 X117.962 Y10.201
G1 X117.897 Y10.001
G1 X117.842 Y9.823
G1 X117.779 Y9.602
G1 X117.75 Y9.484
G1 X117.731 Y9.392
G1 X117.726 Y9.355
G1 X117.724 Y9.302
G1 X117.727 Y9.285
G1 X117.733 Y9.275
G1 Z5 F1206
G0 X121.803 Y7.051 F3600
G1 Z0 F1206
G1 X121.824 Y7.581 F3000
G1 X121.837 Y7.836
G1 X121.852 Y8.086
G1 X121.869 Y8.33
G1 X121.908 Y8.802
G1 X121.955 Y9.252
G1 X121.981 Y9.47
G1 X122.04 Y9.892
G1 X122.072 Y10.096
G1 X122.143 Y10.492
G1 X122.222 Y10.873
G1 X122.265 Y11.058
G1 X122.31 Y11.24
G1 X122.357 Y11.419
G1 X122.407 Y11.595
G1 X122.459 Y11.768
G1 X122.513 Y11.939
G1 X122.569 Y12.107
G1 X122.644 Y12.319
G1 X122.72 Y12.523
G1 X122.797 Y12.719
G1 X122.875 Y12.908
G1 X122.956 Y13.091
G1 X123.039 Y13.267
G1 X123.126 Y13.439
G1 X123.217 Y13.607
G1 X123.312 Y13.771
G1 X123.412 Y13.932
G1 X123.517 Y14.092
G1 X123.629 Y14.25
G1 X123.747 Y14.408
G1 X123.872 Y14.566
G1 X124.004 Y14.725
G1 X124.145 Y14.885
G1 X124.295 Y15.049
G1 X124.454 Y15.215
G1 X124.622 Y15.385
G1 X124.801 Y15.561
G1 X124.991 Y15.741
G1 X125.192 Y15.928
G1 X125.631 Y16.323
G1 X125.955 Y16.612
G1 X126.201 Y16.838
G1 X126.322 Y16.954
G1 X126.344 Y16.979
G1 Y16.981
G1 X131.069 Y20.062
G1 X131.324 Y22.923
G1 X132.113 Y31.687
G1 X132.466 Y35.649
G1 X132.73 Y38.677
G1 X132.786 Y39.367
G1 X132.792 Y39.465
G1 X133.053 Y42.149
G1 X133.073 Y42.335
G1 X133.151 Y43.154
G1 X133.342 Y45.267
G1 X133.454 Y46.505
G1 X133.536 Y47.381
G1 X133.552 Y47.522
G1 X133.553 Y47.529
G1 Z5 F1206
G0 X63.24 Y81.496 F3600
G1 Z0 F1206
G1 X65.404 F3000
G1 X65.469 Y81.5
G1 X65.84 Y81.507
G1 X66.67 Y81.512
G1 X67.121 Y81.513
G1 X68.258 Y81.5
G1 X69.409 Y81.462
G1 X70.572 Y81.4
G1 X71.746 Y81.313
G1 X72.93 Y81.201
G1 X74.122 Y81.066
G1 X75.322 Y80.907
G1 X76.527 Y80.724
G1 X77.738 Y80.518
G1 X78.952 Y80.29
G1 X80.169 Y80.039
G1 X81.386 Y79.765
G1 X82.604 Y79.47
G1 X83.821 Y79.153
G1 X85.035 Y78.814
G1 X86.245 Y78.455
G1 X87.451 Y78.075
G1 X88.65 Y77.674
G1 X89.841 Y77.253
G1 X91.025 Y76.811
G1 X92.198 Y76.35
G1 X93.36 Y75.87
G1 X94.51 Y75.371
G1 X95.647 Y74.853
G1 X97.718 Y73.844
G1 X99.734 Y72.782
G1 X101.692 Y71.667
G1 X103.592 Y70.502
G1 X105.429 Y69.291
G1 X107.203 Y68.035
G1 X108.91 Y66.738
G1 X110.549 Y65.401
G1 X112.117 Y64.028
G1 X113.612 Y62.62
G1 X115.032 Y61.181
G1 X116.374 Y59.713
G1 X117.637 Y58.219
G1 X118.817 Y56.701
G1 X119.913 Y55.161
G1 X120.922 Y53.603
G1 X121.843 Y52.029
G1 X122.672 Y50.441
G1 X123.408 Y48.843
G1 X124.049 Y47.236
G1 X124.591 Y45.623
G1 X125.034 Y44.007
G1 X125.374 Y42.39
G1 X125.609 Y40.775
G1 X125.644 Y40.448
G1 X125.679 Y40.066
G1 X125.698 Y39.823
G1 X125.71 Y39.601
G1 X125.804 Y37.056
G1 Z5 F1206
G0 X50.735 Y77.06 F3600
G1 Z0 F1206
G1 X51.015 Y77.368 F3000
G1 X51.176 Y77.53
G1 X51.608 Y77.949
G1 X52.319 Y78.627
G1 X53.03 Y79.297
G1 X54.693 Y81.008
G1 X56.384 Y82.475
G1 X56.415 Y82.499
G1 X56.602 Y82.665
G1 X57.139 Y83.157
G1 X58.185 Y84.126
G1 X59.699 Y85.537
G1 X60.795 Y86.567
G1 X61.4 Y87.14
G1 X61.646 Y87.377
G1 X61.969 Y87.695
G1 X61.878 Y88.169
G1 Z5 F1206
G0 X60.64 Y95.325 F3600
G1 Z0 F1206
G1 X60.582 Y95.3 F3000
G1 X60.184 Y95.144
G1 X59.01 Y94.694
G1 X56.108 Y93.594
G1 X52.982 Y92.417
G1 X51.062 Y91.699
G1 X50.49 Y91.489
G1 X50.332 Y91.432
G1 X50.271 Y91.413
G1 X48.348 Y90.505
G1 X44.687 Y89.286
G1 X44.64 Y89.273
G1 X44.444 Y89.201
G1 X44.025 Y89.038
G1 X43.647 Y88.884
G1 X43.487 Y88.816
G1 Z5 F1206
G0 X42.16 Y93.324 F3600
G1 Z0 F1206
G1 X42.166 Y93.33 F3000
G1 X42.193 Y93.344
G1 X42.285 Y93.377
G1 X42.458 Y93.427
G1 X42.679 Y93.484
G1 X43.085 Y93.578
G1 X43.403 Y93.643
G1 X43.715 Y93.7
G1 X44.02 Y93.748
G1 X44.319 Y93.787
G1 X44.611 Y93.818
G1 X44.898 Y93.841
G1 X45.178 Y93.855
G1 X45.451 Y93.86
G1 X45.719 Y93.857
G1 X45.981 Y93.845
G1 X46.237 Y93.824
G1 X46.487 Y93.795
G1 X46.731 Y93.757
G1 X46.969 Y93.711
G1 X47.202 Y93.656
G1 X47.429 Y93.593
G1 X47.65 Y93.521
G1 X47.866 Y93.44
G1 X48.076 Y93.35
G1 X48.281 Y93.252
G1 X48.481 Y93.145
G1 X48.675 Y93.03
G1 X48.864 Y92.906
G1 X48.976 Y92.824
G1 X49.092 Y92.734
G1 X49.209 Y92.635
G1 X49.326 Y92.531
G1 X49.441 Y92.421
G1 X49.554 Y92.309
G1 X49.662 Y92.194
G1 X49.765 Y92.08
G1 X49.86 Y91.966
G1 X49.946 Y91.856
G1 X50.021 Y91.75
G1 X50.085 Y91.65
G1 X50.144 Y91.558
G1 X50.198 Y91.482
G1 X50.236 Y91.438
G1 X50.259 Y91.417
G1 X50.271 Y91.413
G1 X50.959 Y89.392
G1 X50.964 Y89.321
G1 X50.986 Y89.225
G1 X51.005 Y89.118
G1 X51.021 Y89
G1 X51.036 Y88.874
G1 X51.049 Y88.739
G1 X51.059 Y88.596
G1 X51.067 Y88.447
G1 X51.073 Y88.291
G1 X51.076 Y88.13
G1 X51.078 Y87.964
G1 X51.077 Y87.795
G1 X51.07 Y87.447
G1 X51.064 Y87.271
G1 X51.044 Y86.916
G1 X51.031 Y86.74
G1 X51.016 Y86.565
G1 X51 Y86.392
G1 X50.981 Y86.223
G1 X50.96 Y86.057
G1 X50.938 Y85.896
G1 X50.913 Y85.741
G1 X50.887 Y85.592
G1 X50.852 Y85.412
G1 X50.814 Y85.236
G1 X50.775 Y85.063
G1 X50.734 Y84.894
G1 X50.692 Y84.73
G1 X50.647 Y84.57
G1 X50.601 Y84.414
G1 X50.554 Y84.264
G1 X50.506 Y84.118
G1 X50.456 Y83.979
G1 X50.405 Y83.845
G1 X50.354 Y83.717
G1 X50.301 Y83.596
G1 X50.249 Y83.481
G1 X50.195 Y83.374
G1 X50.141 Y83.273
G1 X50.086 Y83.18
G1 X50.032 Y83.095
G1 X49.977 Y83.018
G1 X49.923 Y82.95
G1 X49.868 Y82.89
G1 X49.814 Y82.839
G1 X49.76 Y82.797
G1 X49.707 Y82.765
G1 X49.554 Y82.686
G1 Z5 F1206
G0 X48.202 Y80.912 F3600
G1 Z0 F1206
G1 X48.212 Y80.925 F3000
G1 X48.286 Y80.989
G1 X48.472 Y81.137
G1 X48.691 Y81.302
G1 X48.859 Y81.425
G1 X49.026 Y81.545
G1 X49.192 Y81.66
G1 X49.359 Y81.772
G1 X49.524 Y81.88
G1 X49.69 Y81.985
G1 X49.855 Y82.086
G1 X50.02 Y82.183
G1 X50.184 Y82.277
G1 X50.348 Y82.367
G1 X50.512 Y82.453
G1 X50.675 Y82.536
G1 X50.839 Y82.615
G1 X51.002 Y82.691
G1 X51.164 Y82.763
G1 X51.327 Y82.831
G1 X51.489 Y82.896
G1 X51.652 Y82.958
G1 X51.814 Y83.015
G1 X51.976 Y83.07
G1 X52.137 Y83.12
G1 X52.299 Y83.168
G1 X52.461 Y83.211
G1 X52.622 Y83.251
G1 X52.684 Y83.265
G1 X52.753 Y83.276
G1 X52.828 Y83.287
G1 X52.996 Y83.304
G1 X53.182 Y83.317
G1 X53.382 Y83.324
G1 X53.588 Y83.326
G1 X53.797 Y83.324
G1 X54.003 Y83.317
G1 X54.2 Y83.305
G1 X54.384 Y83.288
G1 X54.549 Y83.267
G1 X54.622 Y83.255
G1 X54.689 Y83.242
G1 X54.748 Y83.227
G1 X54.861 Y83.194
G1 X55.044 Y83.132
G1 X55.236 Y83.057
G1 X55.431 Y82.974
G1 X55.62 Y82.886
G1 X55.797 Y82.795
G1 X55.953 Y82.707
G1 X56.043 Y82.65
G1 X56.173 Y82.558
G1 X56.24 Y82.518
G1 X56.301 Y82.489
G1 X56.342 Y82.476
G1 X56.366 Y82.473
G1 X56.384 Y82.475
G1 X57.728 Y80.865
G1 X57.73 Y80.851
G1 X57.766 Y80.76
G1 X57.881 Y80.5
G1 X58.066 Y80.097
G1 X58.143 Y79.92
G1 X58.217 Y79.741
G1 X58.287 Y79.561
G1 X58.354 Y79.38
G1 X58.417 Y79.197
G1 X58.477 Y79.013
G1 X58.533 Y78.827
G1 X58.586 Y78.641
G1 X58.636 Y78.452
G1 X58.682 Y78.263
G1 X58.725 Y78.072
G1 X58.765 Y77.88
G1 X58.801 Y77.687
G1 X58.833 Y77.493
G1 X58.862 Y77.297
G1 X58.888 Y77.1
G1 X58.91 Y76.902
G1 X58.929 Y76.703
G1 X58.945 Y76.503
G1 X58.957 Y76.301
G1 X58.965 Y76.098
G1 X58.97 Y75.895
G1 X58.972 Y75.69
G1 Y74.215
G1 Z5 F1206
G0 Z15 F3600
G17

M5     ;Pen up
G0 X0 Y0 F3600
M117 Finished :)
